tools/hdr-merge/HDR Merge - Log nach Bild.xmp
<x:xmpmeta xmlns:x="adobe:ns:meta/">
 <rdf:RDF xmlns:rdf="http://www.w3.org/1999/02/22-rdf-syntax-ns#">
  <rdf:Description rdf:about=""
    xmlns:crs="http://ns.adobe.com/camera-raw-settings/1.0/"
    crs:PresetType="Normal"
    crs:Cluster=""
    crs:UUID="hdrmerge-log-nach-bild"
    crs:SupportsAmount="False"
    crs:SupportsColor="True"
    crs:SupportsMonochrome="False"
    crs:SupportsHighDynamicRange="True"
    crs:SupportsNormalDynamicRange="True"
    crs:SupportsSceneReferred="True"
    crs:SupportsOutputReferred="True"
    crs:Version="15.0"
    crs:ProcessVersion="15.4"
    crs:Exposure2012="0"
    crs:Contrast2012="0"
    crs:Highlights2012="0"
    crs:Shadows2012="0"
    crs:Whites2012="0"
    crs:Blacks2012="0"
    crs:Clarity2012="0"
    crs:Vibrance="0"
    crs:Saturation="0"
    crs:ToneCurveName2012="Custom"
    crs:HasSettings="True">
   <crs:Name>
    <rdf:Alt><rdf:li xml:lang="x-default">HDR Merge – Log nach Bild</rdf:li></rdf:Alt>
   </crs:Name>
   <crs:ShortName>
    <rdf:Alt><rdf:li xml:lang="x-default">Log nach Bild</rdf:li></rdf:Alt>
   </crs:ShortName>
   <crs:Group>
    <rdf:Alt><rdf:li xml:lang="x-default">HDR Merge</rdf:li></rdf:Alt>
   </crs:Group>
   <crs:ToneCurvePV2012>
    <rdf:Seq>
     <rdf:li>0, 0</rdf:li>
     <rdf:li>32, 34</rdf:li>
     <rdf:li>48, 48</rdf:li>
     <rdf:li>64, 61</rdf:li>
     <rdf:li>80, 77</rdf:li>
     <rdf:li>96, 97</rdf:li>
     <rdf:li>112, 122</rdf:li>
     <rdf:li>128, 149</rdf:li>
     <rdf:li>144, 170</rdf:li>
     <rdf:li>160, 186</rdf:li>
     <rdf:li>176, 199</rdf:li>
     <rdf:li>192, 210</rdf:li>
     <rdf:li>208, 221</rdf:li>
     <rdf:li>224, 233</rdf:li>
     <rdf:li>240, 245</rdf:li>
     <rdf:li>255, 247</rdf:li>
    </rdf:Seq>
   </crs:ToneCurvePV2012>
  </rdf:Description>
 </rdf:RDF>
</x:xmpmeta>
